X: 13
T: Seán Sa Cheo
Z: ceili
S: https://thesession.org/tunes/177#setting50533
R: reel
M: 4/4
L: 1/8
K: Ador
|:"A"e2dg eABd|efdB "G"d2BA|"A"Beed efge|"G"Bdge dGBd:|
|:"A"cA A/A/A cABd|cA A/A/A "G"dGBd|"A"cA A/A/A EA A/A/A|1 "G"B2ge dGBd:|2 "G"B2ge defg||
"A"a2c'a bac'a|a/a/a c'a e3f|"G"g2bg agbg|g/g/g bg e2fg|
"A"a2c'a bac'a|a/a/a c'a e2ef|"G"g2ge agef|gfge dBGE||

